X:5
T:A Bat?
C:T. S. Macdonald
M:C|
L:1/8
K:Gm
F | D<GG>A B>GB<d | c>BA>G F<CC>F | D<GG>A B>GD<B, | (3B,CD (3GAc B<GG>F |
    D<GG>A B>GB<d | (c/B/)A/B/ c>G F<CC>F | D<GG>A B>GB<d | (3cBc (3dcA B>G G ||
d | b>BA<F g>dB<G | f>c (e/d/)c/B/ A<cc>d | b>BA<F G>Bd<g | (3cBc (3dcA B>G G>d |
    b<Ba<B g<dB>G | f>c (e/d/)c/B/ A<cc>E | D<GG>A B>GD<B, | (3B,CD (3GAc B<G G |]


